X: 49
T:Valse
M:3/4
L:1/4
S:St. Chartier 1997, via Eurojam
R:Waltz
Z:Steve Mansfield
K:Dm
A2A | AGF | AGF | E3 | B2B | BAG | dcB | A3 |
A2A | AGF | AGF | E3 | B/A/ G/B/ A/G/ | A/G/F/A/ G/F/ |
F2E |1 D3 :|2 D2A |: [K:D] [L:1/16] AF AF AF | BF BF BF | AF AF AF |
BF BF BF | AF BF cF | dF cF BF | dF cF BF | G6 | BG BG BG | cG cG cG |
BG BG BG | cG cG cG | BG cG dG | eG dG cG | eG dG cG |1 A6:|2 d6 ||

